X:1
T:aria-bwv-988-top-voice
C:Johann Sebastian Bach
M:3/4
L:1/16
% original_key:G
K:C
V:1 name="upper_1"
[V:1] g4 g4 g a2 b | a2 ^f2 d7 z | ^F G3 G5 z ^F G | G ^F ^F E D7 z | d4 d4 d e2 f | e2 d c B2 A4 ^f e | ^f2 g2 e2 c2 a3 c | G2 ^F2 ^F4 ^F G3 | B4 B4 B ^c2 d | d ^c B A8 z | G4 g5 z ^f g | g2 e2 ^c5 z e2 | a g ^f e d2 A4 B c | B A G ^F E2 ^c4 d e | d ^c B A g2 B4 ^c2 | d2 e z d7 z | g4 g4 g a2 b | a2 ^f2 d7 z | ^F G3 G5 z ^F G | G ^F ^F E D7 z | d4 d4 d e2 f | e2 d c B2 A4 ^f e | ^f2 g2 e2 c2 a3 c | G2 ^F2 ^F4 ^F G3 | B4 B4 B ^c2 d | d ^c B A8 z | G4 g5 z ^f g | g2 e2 ^c5 z e2 | a g ^f e d2 A4 B c | B A G ^F E2 ^c4 d e | d ^c B A g2 B4 ^c2 | d2 e z d7 z | G A3 A5 A d e | e d c B G5 z g2 | e3 z ^d2 d e3 b z | a3 ^f ^d5 z B2 | g3 ^f e5 B B A | e2 ^d2 e5 G ^F E | ^F5 z a2 B2 ^f2 | e3 z e7 z | e2 d c B2 A4 B c | c B B A G5 z A B | c d c B c A E3 B A G | ^F4 c A ^F5 c | B c B A B G D3 G3- | G4 e c G3 c3 | a c B A B c d G B A G ^F | G5 D G ^F ^F2 G2 | G A3 A5 A d e | e d c B G5 z g2 | e3 z ^d2 d e3 b z | a3 ^f ^d5 z B2 | g3 ^f e5 B B A | e2 ^d2 e5 G ^F E | ^F5 z a2 B2 ^f2 | e3 z e7 z | e2 d c B2 A4 B c | c B B A G5 z A B | c d c B c A E3 B A G | ^F4 c A ^F5 c | B c B A B G D3 G3- | G4 e c G3 c3 | a c B A B c d G B A G ^F | G5 D G ^F ^F2 G2 |]
